X:30
T:The Woods of the Old Limerick (x3)
R:Jig
M:6/8
Q:3/8=100
K:G
|: BAG ABc | dBg fdc | BAG ABc | ADD DFA
 | BAG ABc | dBg fdc | BAG ABc |1 A/B/A/G/F G2A :|2 A/B/A/G/F G2a
|: bgg gag | fdd d2b | c'aa fab | c'af g2a
 | bgg agf | gag edc | BAG ABc |1 A/B/A/G/F G2a :|2 A/B/A/G/F G3 |]
%
|: BAG ABc | dBg fdc | BAG ABc | ADD DFA
 | BAG ABc | dBg fdc | BAG ABc |1 A/B/A/G/F G2A :|2 A/B/A/G/F G2a
|: bgg gag | fdd d2b | c'aa fab | c'af g2a
 | bgg agf | gag edc | BAG ABc |1 A/B/A/G/F G2a :|2 A/B/A/G/F G3 |]
%
|: BAG ABc | dBg fdc | BAG ABc | ADD DFA
 | BAG ABc | dBg fdc | BAG ABc |1 A/B/A/G/F G2A :|2 A/B/A/G/F G2a
|: bgg gag | fdd d2b | c'aa fab | c'af g2a
 | bgg agf | gag edc | BAG ABc |1 A/B/A/G/F G2a :|2 A/B/A/G/F G3 |]

